**kern	**kern	**kern	**kern	**harm
*staff4	*staff3	*staff2	*staff1	*staff1
=1-	=1-	=1-	=1-	=1-
*clefF4	*clefF4	*clefG2	*clefG2	*
*k[]	*k[]	*k[]	*k[]	*
*M4/4	*M4/4	*M4/4	*M4/4	*
*	*	*	*MM60	*
*B#:	*B#:	*B#:	*B#:	*B#:
1r	1r	1r	2r	.
.	.	.	4r	.
.	.	.	4f##/	.
=2	=2	=2	=2	=2
[1B#	1d##	1f##	4b#/	I
.	.	.	4dd##/	.
.	.	.	4ff##\	.
.	.	.	8.dd##/L	.
.	.	.	16b#/Jk	.
=3	=3	=3	=3	=3
1B#]	2e#\	2g##/	4bb#\	IV64
.	.	.	8.gg##\L	.
.	.	.	16ee#\Jk	.
.	2d##\	2f##/	4ff##\	I
.	.	.	8.dd##/L	.
.	.	.	16b#/Jk	.
=4	=4	=4	=4	=4
[1F##	4c##\	4e#/	4a##/	V7
.	4B#\	4d##/	4b#/	I64
.	4A##\	4cc##/	4ee#\	V7
.	8.B#\L	4b#/	4dd##/	I64
.	16d##\Jk	.	.	.
=5	=5	=5	=5	=5
!!linebreak:original
2F##/]	2f##\	4.a##/	4.cc##/	V7
.	.	8b#/	16ee#/LL	.
.	.	.	16dd##/JJ	.
2r	2r	4a##'/	4cc##'/	.
.	.	4r	4f##/	.
=6	=6	=6	=6	=6
[1BB#	1d##	1f##	4b#/	I
.	.	.	4dd##/	.
.	.	.	4ff##\	.
.	.	.	8.dd##/L	.
.	.	.	16b#/Jk	.
=7	=7	=7	=7	=7
1BB#]	2e#\	2g##/	4bb#\	IV64
.	.	.	8.gg##\L	.
.	.	.	16ee#\Jk	.
.	2d##\	4f##/	4ff##\	I
.	.	4b#/	8.dd##/L	.
.	.	.	16b#/Jk	.
=8	=8	=8	=8	=8
2E#/	2c##\	2b#/	2gg##\	ii6
2E##/	2c##\	[2b#/	8g##/L	V65/V
.	.	.	8a##/	.
.	.	.	8b#/	.
.	.	.	8cc##/J	.
=9	=9	=9	=9	=9
1F##	4B#\	2b#/]	2dd##/	C64
.	4d##\	.	.	.
.	2e#\	2a##/	8.cc##/L	V7
.	.	.	16b#/Jk	.
.	.	.	8.cc##/L	.
.	.	.	16dd##/Jk	.
=10	=10	=10	=10	=10
!!linebreak:original
4B#\	4d##\	4b#/	4b#/	I
4B#\	4d##\	4f##/	4r	.
4B#\	4d##\	4f##/	4r	.
4B#\	4d##\	4f##/	8r	.
.	.	.	16r	.
.	.	.	16ff##\	.
=11	=11	=11	=11	=11
4B#\	4e#\	4a##/	8.cc##/L	V7
.	.	.	16f##/Jk	.
4B#\	4e#\	4a##/	8.ee#/L	.
.	.	.	16dd##/Jk	.
4B#\	4e#\	4a##/	4cc##'/	.
4B#\	4e#\	4a##/	8r	.
.	.	.	16r	.
.	.	.	16ff##\	.
=12	=12	=12	=12	=12
4B#\	4d##\	4b#/	8.b#/L	I
.	.	.	16f##/Jk	.
4B#\	4d##\	4f##/	8.dd##/L	.
.	.	.	16cc##/Jk	.
4B#\	4d##\	4f##/	4b#'/	.
4B#\	4d##\	4f##/	8r	.
.	.	.	16r	.
.	.	.	16ff##\	.
=13	=13	=13	=13	=13
4B#\	4e#\	4a##/	8.cc##/L	V7
.	.	.	16f##/Jk	.
4B#\	4e#\	4a##/	8.ee#/L	.
.	.	.	16dd##/Jk	.
4B#\	4e#\	4a##/	4cc##'/	.
4B#\	4e#\	4a##/	8r	.
.	.	.	16r	.
.	.	.	16ff##\	.
=14	=14	=14	=14	=14
!!pagebreak:original
2B#\	2d##\	2b#/	8.dd##/L	I
.	.	.	16b#/Jk	.
.	.	.	8.ff##\L	.
.	.	.	32dd##\LL	.
.	.	.	32ff##\JJJ	.
2r	2r	2r	8.bb#\L	.
.	.	.	16ff##\Jk	.
.	.	.	8.ddd##\L	.
.	.	.	16ccc##\Jk	.
=15	=15	=15	=15	=15
*	*clefG2	*	*	*
*g##:	*g##:	*g##:	*g##:	*g##:
2g##\	2g##/	[1dd##	4bb#\	i
.	.	.	8.bb#\L	.
.	.	.	16ccc##\Jk	.
2d##\	2a##	.	4aa##\	V
.	.	.	8.ddd##\L	.
.	.	.	16bb#\Jk	.
=16	=16	=16	=16	=16
2e#\	2g##/	4dd##/]	4gg##\	VI
.	.	4aa##/	8.gg##\L	Fr
.	.	.	16aa##\Jk	.
4d##\	4a##/	4dd##/	4aa##	V
4c##\	4a##/	4a##/	4dd##/	V42
=17	=17	=17	=17	=17
!!linebreak:original
*F##:	*F##:	*F##:	*F##:	*F##:
1B#	4d##/	[1b#	4gg##\	ii6
.	2g##/	.	4bb#\	.
.	.	.	4ddd##\	.
.	4g##/	.	16ccc##\LL	.
.	.	.	16bb#\	.
.	.	.	16aa##\	.
.	.	.	16gg##\JJ	.
=18	=18	=18	=18	=18
2.c##\	2.g##/	2.b#/]	2ff##\	V7
.	.	.	4ee##\	.
4C##/	4r	4r	4r	.
=19	=19	=19	=19	=19
4F##/	2r	[1cc##	8.aa##\L	I
.	.	.	16cc##\Jk	.
4A##\	.	.	8.ccc##\L	.
.	.	.	16bb#\Jk	.
*	*clefF4	*	*	*
4c##\	2F##/	.	4aa##'\	.
8.A##\L	.	.	8r	.
.	.	.	16r	.
16F##\Jk	.	.	16cc##/	.
=20	=20	=20	=20	=20
4E##/	4E##/	1cc##]	8.gg##\L	V65
.	.	.	16cc##\Jk	.
4G##\	4r	.	8.bb#\L	.
.	.	.	16aa##\Jk	.
4c##\	4E##/	.	4gg##'\	.
8.G##/L	4e##\	.	8r	.
.	.	.	16r	.
16E##/Jk	.	.	16cc##/	.
=21	=21	=21	=21	=21
!!linebreak:original
4F##/	4f##/	8.aa##\L	2ccc##\	I
.	.	16cc##\Jk	.	.
4r	4a##/	8.ccc##\L	.	.
.	.	16bb#\Jk	.	.
4FF##/	4cc##/	4aa##'\	4ccc##\	.
4AA##/	8.a##/L	8r	4ccc##\	.
.	.	16r	.	.
.	16f##/Jk	16cc##/	.	.
=22	=22	=22	=22	=22
4C##/	4e##/	8.gg##\L	[1ccc##	V7
.	.	16cc##\Jk	.	.
4r	4g##/	8.bb#\L	.	.
.	.	16aa##\Jk	.	.
2EE##/	4cc##/	4gg##'\	.	V65/V
.	8.b#/L	8r	.	.
.	.	16r	.	.
.	16g##/Jk	16cc##/	.	.
=23	=23	=23	=23	=23
4FF##/	4f##/	8.aa##\L	1ccc##_	V7
.	.	16cc##\Jk	.	.
4r	8.a##/L	8.ccc##\L	.	.
.	16g##/Jk	16bb#\Jk	.	.
2r	4f##/	4aa##\	.	.
.	4e##/	4gg##\	.	V6/V
=24	=24	=24	=24	=24
2r	8.d##/L	1ff##	2ccc##\]	vi
.	16f##/Jk	.	.	.
.	8.a##/L	.	.	.
.	16f##/Jk	.	.	.
8.G##\L	2dd##/	.	[2bb#\	ii
16B#\Jk	.	.	.	.
8.d##\L	.	.	.	.
16B#\Jk	.	.	.	.
=25	=25	=25	=25	=25
!!pagebreak:original
4g##\	8.c##/L	2ee##\	2bb#\]	V43
.	16e##/Jk	.	.	.
4r	8.g##/L	.	.	.
.	16e##/Jk	.	.	.
8.F##\L	2cc##/	[2ff##\	2aa##\	I
16A##\Jk	.	.	.	.
8.c##\L	.	.	.	.
16A##\Jk	.	.	.	.
=26	=26	=26	=26	=26
2B#\	1dd##	1ff##_	8.gg##\L	IV
.	.	.	16bb#\Jk	.
.	.	.	8.ddd##\L	.
.	.	.	16bb#\Jk	.
2B##\	.	.	4gg##\	V65/V
.	.	.	4gg##\	.
=27	=27	=27	=27	=27
1c##	2cc##/	2ff##\]	[2gg##\	V7
.	4b#/	2ee##\	8gg##\L]	.
.	.	.	8aa##\	.
.	4g##/	.	8bb#\	.
.	.	.	8ccc##\J	.
=28	=28	=28	=28	=28
2.d##\	2.f##/	2.ff##\	2bb#\	IV6
.	.	.	8.aa##\L	I
.	.	.	16fff##\Jk	.
4r	4r	4r	8.ccc##\L	.
.	.	.	16aa##\Jk	.
=29	=29	=29	=29	=29
!!linebreak:original
*	*clefF4	*	*	*
2A##\	2f##\	2c##/	8.ff##\L	I6
.	.	.	16ff##\Jk	.
.	.	.	8.cc##/L	.
.	.	.	16a##/Jk	.
2AA##/	2c##\	2f##/	8.f##/L	.
.	.	.	16a##/Jk	.
.	.	.	8.cc##/L	.
.	.	.	16a##/Jk	.
=30	=30	=30	=30	=30
1BB#	[1d##	[1f##	8.g##/L	ii6
.	.	.	16b#/Jk	.
.	.	.	8.dd##/L	.
.	.	.	16b#/Jk	.
.	.	.	4g##/	.
.	.	.	4g##/	.
=31	=31	=31	=31	=31
1BB##	1d##]	1f##_	8.a#/L	viio7/V
.	.	.	16dd##/Jk	.
.	.	.	8.ff##/L	.
.	.	.	16dd##/Jk	.
.	.	.	4a#/	.
.	.	.	4a#/	.
=32	=32	=32	=32	=32
[1C##	4c##\	1f##]	8.a##/L	C64
.	.	.	16cc##/Jk	.
.	4A##\	.	8.ff##/L	.
.	.	.	16cc##/Jk	.
.	2F##/	.	4aa##\	.
.	.	.	16gg##\LL	.
.	.	.	16ff##\	.
.	.	.	16ee##\	.
.	.	.	16dd##\JJ	.
=33	=33	=33	=33	=33
!!linebreak:original
1C##]	4G##\	2f##/	[2cc##/	.
.	4A##\	.	.	.
.	2B#\	2e##/	8cc##/L]	V7
.	.	.	8b#/	.
.	.	.	8a##/	.
.	.	.	8g##/J	.
=34	=34	=34	=34	=34
4FF##/	4A##'\	4f##/	4f##/	I
4r	4r	4r	4r	.
2r	2r	2r	2r	.
*-	*-	*-	*-	*-
